X:1
T:Luella, 10.10.10.10.10
T:William T. Rogers, 1871
T:Luella, 10.10.10.10.10
T:Public Domain
C:William T. Rogers, 1871
Z:Public Domain
%%score ( 1 2 ) ( 3 4 )
L:1/8
M:4/4
K:D
V:1 treble 
V:2 treble 
V:3 bass 
V:4 bass 
V:1
 D | D2 [DF]2 [FA]3 [FA] | [GB][FA][Fd][DF] [FA]3 [DF] | [CE]2 [DF]2 [EG]3 [EG] | %4
 [DF][FA]D[DF] [CE]3 [CE] | D2 [DF]2 [FA]3 [FA] | [GB][FA][Fd][DF] [FA]3 [FA] | %7
 [GB]3 [Gd] [FA][Fd][GB][Ge] | [Fd]2 [Ec]2 [Fd]3 [DF] | [EA]3 [EG] [DF][DF][B,E][EG] | %10
 [DF]3 [CE] D3 |] %11
V:2
 D | D2 x6 | x8 | x8 | x2 D x5 | D2 x6 | x8 | x8 | x8 | x8 | x4 D3 |] %11
V:3
 [D,A,] | [D,F,]2 [D,A,]2 [D,A,]3 [D,A,] | [D,D][D,D][D,A,][D,A,] [D,A,]3 [D,A,] | %3
 [A,,A,]2 [A,,A,]2 [A,,A,]3 [A,,A,] | [D,A,][D,A,][D,F,][D,A,] [A,,A,]3 [A,,A,] | %5
 [D,F,]2 [D,A,]2 [D,A,]3 [D,A,] | [D,D][D,D][D,A,][D,A,] [D,A,]3 [D,A,] | %7
 [D,D]3 [D,B,] [D,A,][D,A,][G,B,][G,B,] | A,2 [A,,A,]2 [D,A,]3 [D,A,] | %9
 [A,,C]3 [A,,C] [D,D][B,,F,][G,,G,][G,,B,] | [A,,A,]3 [A,,G,] [D,F,]3 |] %11
V:4
 x | x8 | x8 | x8 | x8 | x8 | x8 | x8 | A,2 x6 | x8 | x7 |] %11

